!!!COM: Palestrina, Giovanni Perluigi da
!!!OPR: Missa Papae Marcelli
!!!OMD: Credo
!!!OTL: Et in Spiritum
**kern	**kern	**kern	**kern	**kern	**kern
*Ibass	*Ibass	*Itenor	*Itenor	*Icalto	*Icant
!Bassus 2	!Bassus 1	!Tenor 2	!Tenor 1	!Altus	!Cantus
*clefF4	*clefF4	*clefGv2	*clefGv2	*clefG2	*clefG2
*k[]	*k[]	*k[]	*k[]	*k[]	*k[]
*C:ion	*C:ion	*C:ion	*C:ion	*C:ion	*C:ion
*M4/2	*M4/2	*M4/2	*M4/2	*M4/2	*M4/2
=116	=116	=116	=116	=116	=116
1.G	0r	1.d	1.B	1.g	1.dd
2G	.	2d	2B	2g	2dd
=117	=117	=117	=117	=117	=117
1G	0r	1d	1B	1g	1dd
1G	.	1d	1B	1g	1dd
=118	=118	=118	=118	=118	=118
[0C	2r	2g	2c	2e	2ee
.	1c	1e	4c	1g	1ee
.	.	.	4d	.	.
.	.	.	4e	.	.
.	.	.	4f	.	.
.	2c	2e	2g	2g	2ee
=119	=119	=119	=119	=119	=119
0C]	1c	1e	2e	1g	1ee
.	.	.	2.c	.	.
.	1c	1e	.	1g	1ee
.	.	.	4d	.	.
.	.	.	2e	.	.
=120	=120	=120	=120	=120	=120
2r	1F	2f	2A	2a	0cc
1F	.	1f	1c	1a	.
.	1r	.	.	.	.
2F	.	2f	2c	2a	.
=121	=121	=121	=121	=121	=121
4F	0r	2f	4A	1a	0r
4G	.	.	4B	.	.
4A	.	1e	4c	.	.
4B	.	.	4d	.	.
2c	.	.	2e	2g	.
2F	.	[2a	[2d	[2f	.
=122	=122	=122	=122	=122	=122
1A	0r	2a]	4d]	4f]	0r
.	.	.	4c	4e	.
.	.	2f	1c	2c	.
1G	.	1g	.	1d	.
.	.	.	2B	.	.
=123	=123	=123	=123	=123	=123
0r	2r	2r	1c	2e	2r
.	1F	1c	.	1f	1a
.	.	.	1r	.	.
.	2F	2c	.	2f	2a
=124	=124	=124	=124	=124	=124
0r	4F	1f	0r	1a	4a
.	4G	.	.	.	4b
.	4A	.	.	.	4cc
.	4B	.	.	.	4dd
.	2c	2e	.	2g	2ee
.	2F	[2f	.	[2a	[2dd
=125	=125	=125	=125	=125	=125
0r	1A	4f]	0r	2a]	2dd]
.	.	4e	.	.	.
.	.	4d	.	2f	2.cc
.	.	4c	.	.	.
.	1G	1d	.	1g	.
.	.	.	.	.	8b
.	.	.	.	.	8a
.	.	.	.	.	2b
=126	=126	=126	=126	=126	=126
0C	2r	2c	1.e	2r	2cc
.	1c	2g	.	1g	1ee
.	.	2e	.	.	.
.	2c	4c	2e	2g	2ee
.	.	4d	.	.	.
=127	=127	=127	=127	=127	=127
1C	1c	4e	1e	1g	1ee
.	.	4f	.	.	.
.	.	2g	.	.	.
1F	1A	2f	1f	1a	1cc
.	.	[2a	.	.	.
=128	=128	=128	=128	=128	=128
1D	1.d	2a]	2.f	1.a	1.ff
.	.	2d	.	.	.
.	.	.	4g	.	.
2r	.	1d	4a	.	.
.	.	.	4f	.	.
[2G	2G	.	[2g	2b	2dd
=129	=129	=129	=129	=129	=129
2G]	1.G	0g	2g]	2b	2dd
2C	.	.	2e	1cc	2.gg
1C	.	.	2.e	.	.
.	.	.	.	.	4ff
.	[2c	.	.	[2g	[2ee
.	.	.	4d	.	.
=130	=130	=130	=130	=130	=130
0r	4c]	1e	1c	2g]	4ee]
.	4B	.	.	.	4dd
.	4A	.	.	1a	4cc
.	4G	.	.	.	4b
.	2F	2f	1d	.	2a
.	2G	4e	.	[2g	2b
.	.	4d	.	.	.
=131	=131	=131	=131	=131	=131
1r	1A	1c	1r	2g]	1cc
.	.	.	.	2f#	.
2r	1G	1d	2r	1g	2b
[2G	.	.	[2g	.	[2dd
=132	=132	=132	=132	=132	=132
2G]	0r	1r	2g]	2r	2dd]
2G	.	.	2g	1g	2dd
2.c	.	2r	1e	.	1ee
.	.	[2e	.	2g	.
4B	.	.	.	.	.
=133	=133	=133	=133	=133	=133
4A	0r	2e]	1c	1cc	1ee
4G	.	.	.	.	.
2A	.	2e	.	.	.
2D	.	1f	2d	2a	1r
[2A	.	.	4c	[2cc	.
.	.	.	4B	.	.
=134	=134	=134	=134	=134	=134
4A]	0r	2.e	4c	4cc]	0r
4G	.	.	4d	4b	.
2E	.	.	1e	2g	.
.	.	4d	.	.	.
2F	.	2c	.	2a	.
2F	.	2A	2d	2a	.
=135	=135	=135	=135	=135	=135
1E	1r	2B	1e	4g	0r
.	.	.	.	4f	.
.	.	2.e	.	4e	.
.	.	.	.	4d	.
1r	[1A	.	2.c	2c	.
.	.	4d	.	.	.
.	.	4c	.	[2cc	.
.	.	4B	4d	.	.
=136	=136	=136	=136	=136	=136
0r	2A]	2A	2e	2cc]	0r
.	2G	2B	2e	2b	.
.	2F	2c	2f	2a	.
.	2E	2G	2c	2g	.
=137	=137	=137	=137	=137	=137
0r	1D	2A	1d	1f	0r
.	.	2B	.	.	.
.	[1C	1c	2G	[1e	.
.	.	.	[2g	.	.
=138	=138	=138	=138	=138	=138
1c	1C]	2r	2g]	0e]	1ee
.	.	2c	2.e	.	.
[1A	1r	2c	.	.	[1cc
.	.	.	4d	.	.
.	.	2A	4c	.	.
.	.	.	4B	.	.
=139	=139	=139	=139	=139	=139
2A]	0r	2c	2A	0r	2cc]
2G	.	2.d	2B	.	2b
2F	.	.	2c	.	2a
.	.	4c	.	.	.
2E	.	[2c	2c	.	2g
=140	=140	=140	=140	=140	=140
1D	1r	2c]	1d	1r	1f
.	.	2B	.	.	.
2C	2r	2c	2G	2r	2e
[2c	[2C	[2e	[2g	[2cc	[2ee
=141	=141	=141	=141	=141	=141
2c]	2C]	2e]	2g]	2cc]	2ee]
2c	2C	2e	2g	2g	2cc
2A	2F	2d	2f	2a	2dd
2B	2G	2d	2d	2g	2dd
=142	=142	=142	=142	=142	=142
1c	1C	1c	1g	1e	1ee
2.A	2.F	2r	[1f	[1a	2cc
.	.	[2c	.	.	2a
4G	4G	.	.	.	.
=143	=143	=143	=143	=143	=143
1F	2A	2c]	1f]	1a]	4a
.	.	.	.	.	4b
.	2A	2c	.	.	4cc
.	.	.	.	.	4dd
1C	1c	4c	[1e	1g	4ee
.	.	4d	.	.	4ff
.	.	4e	.	.	[2ee
.	.	4f	.	.	.
=144	=144	=144	=144	=144	=144
2.E	[0G	4g	1e]	0g	4ee]
.	.	4a	.	.	4dd
.	.	2.g	.	.	1cc
4F	.	.	.	.	.
1G	.	.	1d	.	.
.	.	4f	.	.	.
.	.	2d	.	.	2b
=145	=145	=145	=145	=145	=145
[0C	1G]	0e	1c	1g	0cc
.	2r	.	2r	2r	.
.	2c	.	2e	2g	.
=146	=146	=146	=146	=146	=146
1C]	2c	2r	2e	2g	2r
.	2c	2e	2e	2g	2cc
1r	1A	2e	1c	1a	2cc
.	.	2c	.	.	2cc
=147	=147	=147	=147	=147	=147
0r	1G	1g	2B	1b	1dd
.	.	.	2G	.	.
.	2C	1e	2g	2.cc	2ee
.	[2c	.	2g	.	2ee
.	.	.	.	4b	.
=148	=148	=148	=148	=148	=148
0r	4c]	2e	0c	2a	4ee
.	4B	.	.	.	4dd
.	4A	1e	.	1g	4cc
.	4G	.	.	.	4b
.	2A	.	.	.	2cc
.	2A	2c	.	2f#	2cc
=149	=149	=149	=149	=149	=149
1r	1G	1d	2r	1g	1b
.	.	.	2g	.	.
1c	1r	1e	2g	2r	1r
.	.	.	2g	2g	.
=150	=150	=150	=150	=150	=150
2c	0r	2.c	2.e	2g	1cc
2c	.	.	.	2g	.
.	.	4d	4d	.	.
2A	.	2e	2c	2a	2cc
2A	.	2c	2c	2a	2cc
=151	=151	=151	=151	=151	=151
1G	0r	2g	2B	1b	2dd
.	.	2g	2G	.	2dd
2C	.	1e	2g	2.cc	2ee
[2c	.	.	2g	.	2ee
.	.	.	.	4b	.
=152	=152	=152	=152	=152	=152
4c]	0r	2e	0c	2a	4ee
4B	.	.	.	.	4dd
4A	.	1e	.	1g	4cc
4G	.	.	.	.	4b
2A	.	.	.	.	2cc
2A	.	2c	.	2f#	2cc
=153	=153	=153	=153	=153	=153
0G	2r	2d	2r	0g	2b
.	2G	2B	2d	.	2dd
.	2G	2B	2d	.	2dd
.	2G	2B	2d	.	2dd
=154	=154	=154	=154	=154	=154
2r	0C	4c	0g	2r	0ee
.	.	4d	.	.	.
2c	.	4e	.	2e	.
.	.	4f	.	.	.
2c	.	2g	.	2e	.
2c	.	2c	.	2e	.
=155	=155	=155	=155	=155	=155
0F	2r	2c	2r	0a	1ff
.	2F	2A	2f	.	.
.	2F	4A	2f	.	2ff
.	.	4B	.	.	.
.	2F	4c	2f	.	2ff
.	.	4d	.	.	.
=156	=156	=156	=156	=156	=156
2r	0c	4e	2.g	2r	0ee
.	.	4d	.	.	.
2C	.	4e	.	2g	.
.	.	4f	4f	.	.
2C	.	2g	4e	2g	.
.	.	.	4d	.	.
2C	.	2e	[2c	2g	.
=157	=157	=157	=157	=157	=157
1F	1A	1f	2c]	1a	1cc
.	.	.	1A	.	.
[1D	2r	1a	.	2f	2r
.	[2d	.	[2a	[2f	[2dd
=158	=158	=158	=158	=158	=158
1D]	2d]	1d	2a]	2f]	2dd]
.	2d	.	2a	2f	2dd
1r	2d	2f	2a	2a	2dd
.	2G	2g	2g	2b-	2dd
=159	=159	=159	=159	=159	=159
1r	1d	2a	2g	1a	1dd
.	.	1d	2f#	.	.
2r	[1G	.	2.g	[1g	2.b
[2G	.	4G	.	.	.
.	.	4A	8f	.	4a
.	.	.	8e	.	.
=160	=160	=160	=160	=160	=160
2G]	0G]	4B	4d	0g]	4g
.	.	4c	4c	.	4a
2G	.	1d	4B	.	4b
.	.	.	4A	.	4cc
2G	.	.	2B	.	2dd
2C	.	[2c	2c	.	2ee
=161	=161	=161	=161	=161	=161
1G	1r	2c]	1d	1g	1dd
.	.	2B	.	.	.
1C	1c	[1c	1g	1e	1ee
=162	=162	=162	=162	=162	=162
1F	1A	1c]	1f	1a	2cc
.	.	.	.	.	2.ff
1D	2.d	2r	1a	1f	.
.	.	.	.	.	4ee
.	.	[2d	.	.	[2dd
.	4c	.	.	.	.
=163	=163	=163	=163	=163	=163
0G	4B	2d]	1g	0g	4dd]
.	4A	.	.	.	4cc
.	1B	2d	.	.	4b
.	.	.	.	.	4a
.	.	[1g	2r	.	1b
.	2G	.	[2d	.	.
=164	=164	=164	=164	=164	=164
0D	0d	2g]	2d]	0a	2a
.	.	4f	2d	.	2.dd
.	.	4e	.	.	.
.	.	1f#	1d	.	.
.	.	.	.	.	4cc
.	.	.	.	.	2a
=165	=165	=165	=165	=165	=165
1r	0G	1g	1B	1g	1b
1G	.	1d	1B	1g	1dd
=166	=166	=166	=166	=166	=166
1C	0r	0g	1c	2.e	0ee
.	.	.	.	4f	.
[1c	.	.	1c	2g	.
.	.	.	.	2c	.
=167	=167	=167	=167	=167	=167
2c]	0G	2.g	1G	1d	0dd
4B	.	.	.	.	.
4A	.	8f	.	.	.
.	.	8e	.	.	.
1B	.	1d	1g	2G	.
.	.	.	.	[2g	.
=168	=168	=168	=168	=168	=168
2c	1C	2e	1e	2g]	2cc
1C	.	4c	.	2g	1ee
.	.	4d	.	.	.
.	[1c	4e	1c	[1g	.
.	.	4f	.	.	.
2C	.	2g	.	.	2ee
=169	=169	=169	=169	=169	=169
0G	2c]	2G	1d	0g]	0dd
.	4B	2.g	.	.	.
.	4A	.	.	.	.
.	1B	.	1G	.	.
.	.	4f	.	.	.
.	.	2d	.	.	.
=170	=170	=170	=170	=170	=170
2C	1c	1e	2r	1g	2cc
1c	.	.	1g	.	1ee
.	1r	2c	.	1r	.
2B	.	2d	2g	.	2dd
=171	=171	=171	=171	=171	=171
2A	0r	2e	2a	0r	2cc
2G	.	2B	2d	.	2b
1F	.	1c	1f	.	1a
=172	=172	=172	=172	=172	=172
1C	2r	1c	1e	2r	1g
.	1c	.	.	1e	.
1r	.	2G	1r	.	2.g
.	2B	2G	.	2d	.
.	.	.	.	.	4g
=173	=173	=173	=173	=173	=173
0r	2A	2c	1r	2e	2a
.	2G	2B	.	2e	2b
.	1F	1A	2r	1a	1cc
.	.	.	[2f	.	.
=174	=174	=174	=174	=174	=174
2r	1C	1c	2f]	2.g	1cc
1c	.	.	2e	.	.
.	.	.	.	4f	.
.	1r	2r	2.e	2g	2r
2A	.	[2e	.	2a	[2cc
.	.	.	4d	.	.
=175	=175	=175	=175	=175	=175
1A	0r	2e]	0c	1e	2cc]
.	.	2c	.	.	2a
1F	.	2.f	.	2r	[1a
.	.	.	.	[2f	.
.	.	4e	.	.	.
=176	=176	=176	=176	=176	=176
0B-	0r	2d	0d	2f]	2a]
.	.	2G	.	2d	4g
.	.	.	.	.	4f
.	.	2r	.	[1d	1g
.	.	2d	.	.	.
=177	=177	=177	=177	=177	=177
0A	0r	2f	1r	2d]	0a
.	.	4e	.	4c	.
.	.	4d	.	4B	.
.	.	1e	2r	1c#	.
.	.	.	2a	.	.
=178	=178	=178	=178	=178	=178
0D	2r	1d	1a	4d	2r
.	.	.	.	4e	.
.	2d	.	.	4f	2ff
.	.	.	.	4g	.
.	1d	2r	2f	2a	1ff
.	.	2a	2d	2f	.
=179	=179	=179	=179	=179	=179
0r	2c	1a	2e	1cc	1ee
.	2A	.	4c	.	.
.	.	.	4d	.	.
.	1c	2g	4e	2cc	2cc
.	.	.	4f	.	.
.	.	2e	[2g	2cc	2ee
=180	=180	=180	=180	=180	=180
0r	1G	1g	2g]	1b-	2dd
.	.	.	2d	.	2.dd
.	2.A	2f	2r	1a	.
.	.	.	.	.	8cc
.	.	.	.	.	8b
.	.	[2e	[2A	.	2cc#
.	4G	.	.	.	.
=181	=181	=181	=181	=181	=181
0r	2F	4e]	2A]	2r	1dd
.	.	4d	.	.	.
.	2G	1d	1B	2g	.
.	2E	.	.	1g	2ee
.	2E	2c#	2G	.	2ee
=182	=182	=182	=182	=182	=182
2r	0D	2d	1A	2f	0a
2d	.	2f	.	2d	.
1d	.	1f	2r	4f	.
.	.	.	.	4g	.
.	.	.	2a	4a	.
.	.	.	.	4b	.
=183	=183	=183	=183	=183	=183
2c	0r	1.e	1a	2cc	2r
2A	.	.	.	4c	2ee
.	.	.	.	4d	.
1c	.	.	2g	4e	1ee
.	.	.	.	4f	.
.	.	2c	2e	[2g	.
=184	=184	=184	=184	=184	=184
1G	0r	1d	1g	2g]	2dd
.	.	.	.	2d	2b
2.A	.	2c	2f	1a	2cc
.	.	[2c	[2e	.	2cc
4G	.	.	.	.	.
=185	=185	=185	=185	=185	=185
2F	0r	2c]	4e]	2a	2a
.	.	.	4d	.	.
2G	.	2B	1d	1g	2b
2E	.	2B	.	.	1g
2E	.	4A	2c#	4f	.
.	.	4G	.	4e	.
=186	=186	=186	=186	=186	=186
0D	1.d	1A	2.d	2.f#	1r
.	.	.	4e	4g	.
.	.	2r	1f#	1a	[1dd
.	2c	2A	.	.	.
=187	=187	=187	=187	=187	=187
1.G	2B	2B	1g	1d	2dd]
.	2A	2c	.	.	2cc
.	[1G	1d	2r	[1g	2b
2F	.	.	2d	.	2a
=188	=188	=188	=188	=188	=188
2E	1G]	1.g	2e	2g]	1g
2D	.	.	2f	2f	.
1C	[1c	.	[1g	2e	[1ee
.	.	2f	.	2d	.
=189	=189	=189	=189	=189	=189
1.c	2c]	1e	1g]	2c	2ee]
.	2B	.	.	2d	2dd
.	2A	1a	1c	1e	[1cc
2B	2G	.	.	.	.
=190	=190	=190	=190	=190	=190
0A	1.F	1r	1.f	1.a	2cc]
.	.	.	.	.	2b
.	.	[1a	.	.	1a
.	2E	.	2g	2g	.
=191	=191	=191	=191	=191	=191
1.d	0D	2a]	1a	2f	1.ff
.	.	2g	.	2e	.
.	.	1f	1A	[1d	.
2c	.	.	.	.	2ee
=192	=192	=192	=192	=192	=192
2B	0G	1.g	2B	1d]	2dd
2A	.	.	2c	.	2cc
[1G	.	.	2d	[1g	2b
.	.	2f	2B	.	[2dd
=193	=193	=193	=193	=193	=193
0G]	1C	1e	1c	0g]	2dd]
.	.	.	.	.	1cc
.	1G	1d	2d	.	.
.	.	.	[2g	.	2b
=194	=194	=194	=194	=194	=194
1.c	1C	[0c	2g]	0e	1cc
.	.	.	2f	.	.
.	[1c	.	2e	.	1g
2B	.	.	2d	.	.
=195	=195	=195	=195	=195	=195
2A	2c]	0c]	1c	1.cc	1.a
2G	2B	.	.	.	.
[1F	2A	.	[1f	.	.
.	2G	.	.	2b	2b
=196	=196	=196	=196	=196	=196
2F]	0F	[0c	0f]	2a	2.cc
2G	.	.	.	2g	.
.	.	.	.	.	4b
1A	.	.	.	1f	2cc
.	.	.	.	.	2dd
=197	=197	=197	=197	=197	=197
0G	0C	0c]	0e	0g	0ee
==	==	==	==	==	==
*-	*-	*-	*-	*-	*-
!!!CDT: 1525/^1526/-1594/2/2
!!!OCY: Italia
!!!AGN: Mass (Free)
!!!AST: renaissance, vocal
!!!ASW: Chanson 1533 (Lupi or Cadéac)
!!!PWK: Masses, Book 2
!!!RNB: Cadence finals: G
!!!YOR: Le Opere Complete, v. 4, p. 167
!!!YOO: Rome, Italy: Fratelli Scalera
!!!END: 1992//
!!!EED: John Miller
!!!YEC: Copyright 2000, John Miller
!!!YEN: United States of America
!!!YEM: Rights to all derivative electronic formats reserved.
!!!YEM: Refer to licensing agreement for further details.
!!!YEM: This file must be accompanied by the licensing agreement.
!!!YEM: A copy of the licensing agreement may be found at http://www.music-cog.ohio-state.edu/HumdrumDatabases/Palestrina/license.txt
!!!EMD: converted to Humdrum by Bret Aarden
